!!!OTL-incipit: ES WOLLT EIN MAEDEL WASSER HOL'N, WOHL AUS DEM KUEHLEN BRUNNEN
!!!ARE: Europa, Mitteleuropa, Deutschland, Pommern
!!!SCT: Z0156
!!!TXL: @@DE
!!!YEM: Copyright 1995, estate of Helmut Schaffrath.
**kern	**text
*ICvox	*
*M2/4	*
*k[b-]	*
*F:	*
!LO:TX:a:t=Pommern. Mündlich.	!
{8c	Es
=1	=1
8f	wollt
8g	ein
8a	Mä-
8b-/	-del
=2	=2
8cc	Waſſer
8cc	.
8cc}	hol'n,
{8cc	wohl
=3	=3
8dd	aus
8cc	dem
8dd	küh-
8ee	-len
=4	=4
8ff	Brun-
16eeL	.
16ddJ	.
4cc}	-nen,
=5	=5
{16aL	hm
16fJ	.
16a/L	hm
16ccJ	.
4b-/	hm,
=6	=6
16gL	ha
16eJ	.
16gL	ha
16b-J	.
8.a}	ha,
{16g	wohl
=7	=7
8f	aus
8g	dem
8a	küh-
8cc	-len
=8	=8
4g	Brunnen.
8f}	.
==	==
!!!AGN: Erzaehlung, lustige Romanze
!!!ONB: ESAC (Essen Associative Code) Database: ZUCCAL
!!!AMT: simple duple
!!!AIN: vox
!!!EED: Helmut Schaffrath
!!!EEV: 1.0
!!!GTL: II. Erzahlungen, lustige Romanzen, Kinder-Lieder und episch-lyrische Volks-Lieder.
!!!URL-scan: https://www.digitale-sammlungen.de/de/view/bsb11160571?page=294
!!!ENC: Anna Maria Matuszewska
!!!EEV: 2025/01/28
*-	*-
